source/img/icon-whatsapp.svg

<svg width="24" height="24" viewBox="0 0 24 24" fill="currentColor" xmlns="http://www.w3.org/2000/svg">
<g>
<path d="M12.0025 2H11.9975C6.48375 2 2 6.485 2 12C2 14.1875 2.705 16.215 3.90375 17.8612L2.6575 21.5763L6.50125 20.3475C8.0825 21.395 9.96875 22 12.0025 22C17.5162 22 22 17.5138 22 12C22 6.48625 17.5162 2 12.0025 2ZM17.8212 16.1213C17.58 16.8025 16.6225 17.3675 15.8587 17.5325C15.3363 17.6437 14.6537 17.7325 12.3562 16.78C9.4175 15.5625 7.525 12.5763 7.3775 12.3825C7.23625 12.1887 6.19 10.8013 6.19 9.36625C6.19 7.93125 6.91875 7.2325 7.2125 6.9325C7.45375 6.68625 7.8525 6.57375 8.235 6.57375C8.35875 6.57375 8.47 6.58 8.57 6.585C8.86375 6.5975 9.01125 6.615 9.205 7.07875C9.44625 7.66 10.0337 9.095 10.1038 9.2425C10.175 9.39 10.2463 9.59 10.1462 9.78375C10.0525 9.98375 9.97 10.0725 9.8225 10.2425C9.675 10.4125 9.535 10.5425 9.3875 10.725C9.2525 10.8837 9.1 11.0538 9.27 11.3475C9.44 11.635 10.0275 12.5937 10.8925 13.3637C12.0087 14.3575 12.9137 14.675 13.2375 14.81C13.4787 14.91 13.7662 14.8863 13.9425 14.6988C14.1663 14.4575 14.4425 14.0575 14.7238 13.6638C14.9237 13.3813 15.1763 13.3462 15.4412 13.4462C15.7113 13.54 17.14 14.2462 17.4338 14.3925C17.7275 14.54 17.9212 14.61 17.9925 14.7338C18.0625 14.8575 18.0625 15.4388 17.8212 16.1213Z" fill="currentColor"/>
</g>
</svg>

<svg width="24" height="24" fill="currentColor" xmlns="http://www.w3.org/2000/svg"><path d="M12.002 2h-.005C6.485 2 2 6.485 2 12c0 2.188.705 4.215 1.904 5.861l-1.246 3.715L6.5 20.347A9.913 9.913 0 0012.002 22C17.517 22 22 17.514 22 12S17.516 2 12.002 2zm5.82 14.121c-.242.681-1.2 1.247-1.963 1.412-.523.11-1.205.2-3.503-.753-2.938-1.218-4.831-4.204-4.978-4.398-.142-.193-1.188-1.58-1.188-3.016 0-1.435.729-2.133 1.022-2.433.242-.247.64-.36 1.023-.36.124 0 .235.007.335.012.294.013.441.03.635.494.241.581.829 2.016.899 2.163.071.148.142.348.042.542-.094.2-.176.288-.324.458-.147.17-.287.3-.434.483-.136.159-.288.329-.118.623.17.287.758 1.246 1.623 2.016 1.116.993 2.02 1.311 2.345 1.446.24.1.528.076.705-.111.223-.242.5-.642.78-1.035.2-.283.453-.318.718-.218.27.094 1.699.8 1.993.947.293.147.487.217.558.34.07.124.07.706-.17 1.388z"/></svg>
